src/16/actions/mail-receive.svg

<svg xmlns="http://www.w3.org/2000/svg" width="16" height="16" viewBox="0 0 16 16">
 <defs>
  <style id="current-color-scheme" type="text/css">
   .ColorScheme-Text { color:#565656; } .ColorScheme-Highlight { color:#5294e2; }
  </style>
 </defs>
 <path style="fill:currentColor" class="ColorScheme-Text" d="M 2 2.0039062 C 0.892 2.0039062 0 2.8959063 0 4.0039062 L 0 12.003906 C 0 13.111906 0.892 14.003906 2 14.003906 L 14 14.003906 C 15.108 14.003906 16 13.111906 16 12.003906 L 16 4.0039062 C 16 2.8959062 15.108 2.0039062 14 2.0039062 L 2 2.0039062 z M 7 4 L 9 4 L 9 8 L 10.5 6.5 L 12 8 L 8 12 L 4 8 L 5.5 6.5 L 7 8 L 7 4 z"/>
</svg>

<svg xmlns="http://www.w3.org/2000/svg" width="16" height="16"><defs><style id="current-color-scheme" type="text/css"></style></defs><path d="M2 2.004c-1.108 0-2 .892-2 2v8c0 1.108.892 2 2 2h12c1.108 0 2-.892 2-2v-8c0-1.108-.892-2-2-2H2zM7 4h2v4l1.5-1.5L12 8l-4 4-4-4 1.5-1.5L7 8V4z" fill="currentColor" color="#565656"/></svg>
